X: 6
T: Cuncti Simus Concanentes
B: Llibre Vermeil
F:http://www.cervantesvirtual.com/s3/BVMC_OBRAS/ff6/fe3/e28/2b1/11d/fac/c70/021/85c/e60/64/mimes/imagenes/ff6fe3e2-82b1-11df-acc7-002185ce6064_25.jpg
Z:Ali Corbin <ali.corbin:gmail.com>
N: Rhythmic mode 1
M: 3/4
L: 1/4
Q: 1/4=200
K: G Dorian
V:1
%Staff 1
%%MIDI program 65
   B2  B| A2  A |(GF)   G| A2  G |  D F2 |G (AF)| G3 ||
w:Cun-cti si-mus con-* ca-nen-tes:  A-ve Ma- ri-*  a.
   G2 G |B2 B |c  d2 |d2  c|c2 B | A G2 | F A2| G  z2 |
w:Vir-go so-la e-xis-ten-te en af-fu-it  an-ge-lus;
  G2 G | B2 B | c  d2| d2  c |c2 B |  A  G2 | F A2| G z2 |
w:Ga-bri-el est ap-pel-la-tus at-que mis-sus ce-li-tus.
   B2 B |A2 A |(GF) G| A2  G | D F2|G (AF)|G3 ||
w:Cla-ra fa-ci- e-*que di-xit: A-ve Ma-ri-*a.
%
W: 
W:CUNCTI SIMUS CONCANENTES.
W: 
W:Cuncti simus concanentes: Ave Maria.
W:
W:Virgo sola existente en affuit angelus;
W:Gabnel est appellatus atque missus celitus.
W:Clara facieque dixit: Ave Maria.
W:
W:Clara facieque dixit, audite, karissimi.
W:En concipies, Maria, Ave Maria.
W:
W:En concipies, Maria, audite karissimi.
W:Pariesque filium, Ave Maria.
W:
W:Pariesque tilium, audite, karissimi.
W:Vocabis eum Ihesum, Ave Maria.

